X:1
T:Mélodies pour Piano et Chant (Chansons populaires)
T:Un rêve
T:19. Un rêve (Mélodie à 2 voix) 
T:Augusta Holmès
T:Mélodies pour Piano et Chant 
T:(Holmès) 
T:Creative Commons copyright waiver (CC0 1.0 Universal)
T:Creative Commons copyright waiver (CC0 1.0 Universal)
T:Creative Commons copyright waiver (CC0 1.0 Universal)
T:Creative Commons copyright waiver (CC0 1.0 Universal)
T:Creative Commons copyright waiver (CC0 1.0 Universal)
T:Creative Commons copyright waiver (CC0 1.0 Universal)
T:Creative Commons copyright waiver (CC0 1.0 Universal)
T:Creative Commons copyright waiver (CC0 1.0 Universal)
T:Creative Commons copyright waiver (CC0 1.0 Universal)
T:Creative Commons copyright waiver (CC0 1.0 Universal)
T:Creative Commons copyright waiver (CC0 1.0 Universal)
T:Creative Commons copyright waiver (CC0 1.0 Universal)
C:Augusta Holmès
Z:Augusta Holmès
Z:Creative Commons copyright waiver (CC0 1.0 Universal)
%%score 1 2 { 3 | 4 }
L:1/8
Q:1/4=110
M:4/4
K:B
V:1 treble nm="Chant\nVoice"
V:2 treble-8 nm="Tenor"
V:3 treble nm="Piano"
V:4 bass 
V:1
"^Allegro" z8 |[K:treble-8]"^UNE VOIX (Ténor)""_The two Voice parts use local time signatures" z8 | %2
w: ||
 z4 z4/3 z2/3 d B d | f12- | f3 z4/3 z2/3 z4/3 z2/3 d B d | f12- | f z2/3 d B2 c d2 B G2 B | %7
w: Viens a- vec|moi!|_ Viens a- vec|moi!|_ la barque est prête Et nous at-|
 F3- F z2/3 G d6- ||[M:6/8] d3- d2 z2/3 ||[M:12/8] d2 d c2 B f3- f d A | c6 F6- || %11
w: \- tend! _ Suis moi!|_ _|Le vais- seau du Rêve _ est en|fê- te!|
[M:6/8] F2 z2/3 z4/3 F ||[M:12/8] G2 G B2 G F3- F D F | G3 B2 G c6- ||[M:6/8] c2 z2/3 _B2 B || %15
w: _ La|voix de mes ra- meurs _ nous ap-|\- pelle en chan- tant!|_ Le so-|
[K:Eb][M:12/8] e6 e3 e3 | e6- e3 e3 | (e3- e2 f) e2 z2/3 e2 e | e6 e3 e3 | e6 e3 e2 e | e6 e3 e3 | %21
w: \- leil a per-|cé _ la|bru- * * me Et la|va- gue s'al-|\- lu- me d'un ray-|on é- cla-|
 B12- | B6- B2 z2/3 z4/3 z2/3 ||[K:B]"^Page 111" z8 | z8 | z8 | z8 | z8 | z8 | z8 | z8 || %31
w: tant!|_ _|||||||||
[M:6/8]"^Page 112" z4 ||[M:12/8] z8 ||[M:6/8] z4 ||[M:12/8] z8 | %35
w: ||||
[K:treble]"^CELLE QUI  RÊVE (Contralto)" z4 z4/3 z2/3 z4/3 F ||[K:D][M:4/4] F2 G2 F2- F/ z/ F | %37
w: Ce|n'est pas vrai! _ Je|
 F2 G2 F2 z2 | z8 |"^Page 113" z8 ||[K:B] z8 ||[M:12/8][K:treble-8]"^LA VOIX" z4 z4/3 z2/3 d B d | %42
w: rêve, hé- las!||||Viens a- vec|
 f12- | f2 z4/3 z16/3 | z8 | z8 | z8 ||[M:6/8]"^Page  114" z4 ||[M:12/8] z8 | z8 ||[M:6/8] z4 || %51
w: moi!|_||||||||
[M:12/8] z8 | z8 ||[M:6/8] z4 ||[K:Eb][M:12/8] z8 |"^Page 115" z8 | z8 | z8 | z8 | z8 | z8 | z8 || %62
w: |||||||||||
[K:B] z8 |"^Page 116" z8 | z8 | z8 | z8 | z8 | z8 | z8 ||[M:6/8] z4 ||[M:12/8]"^Page 117" z8 || %72
w: ||||||||||
[M:6/8] z4 ||[M:12/8] z8 | z8 ||[K:D][M:4/4][K:treble]"^CELLE QUI RÊVE" F z/ F/ G2 F2- F z | z8 | %77
w: |||Ah! c'est donc vrai! _||
 z8 | z8 ||[K:B]"^Page  118" z8 | z8 | z4 z2 F2 | =G4 F2 F2 | F4- F2 z2 | z8 || %85
w: ||||||||
[K:Eb]"^Page 119" z2 (e4 E2) | G8 ||[K:B] F2 F2 F2 F2 | B8- | B2 z2 z4 | z8 | z8 |] %92
w: |||||||
V:2
 z8 | z8 | z8 | z8 | z8 | z8 | z8 | z8 ||[M:6/8] z4 ||[M:12/8] z8 | z8 ||[M:6/8] z4 ||[M:12/8] z8 | %13
 z8 ||[M:6/8] z4 ||[K:Eb][M:12/8] z8 | z8 | z8 | z8 | z8 | z8 | z8 | z8 ||[K:B] z8 | z8 | z8 | z8 | %27
 z8 | z8 | z8 | z8 ||[M:6/8] z4 ||[M:12/8] z8 ||[M:6/8] z4 ||[M:12/8] z8 | z8 ||[K:D][M:4/4] z8 | %37
 z8 | z8 | z8 ||[K:B] z8 ||[M:12/8] z8 | z8 | z8 | z8 | z8 | z8 ||[M:6/8] z4 ||[M:12/8] z8 | z8 || %50
[M:6/8] z4 ||[M:12/8] z8 | z8 ||[M:6/8] z4 ||[K:Eb][M:12/8] z8 | z8 | z8 | z8 | z8 | z8 | z8 | %61
 z8 ||[K:B] z8 | z8 | z8 | z8 | z8 | z8 | z8 | z8 ||[M:6/8] z4 ||[M:12/8] z8 ||[M:6/8] z4 || %73
[M:12/8] z8 | z8 ||[K:D][M:4/4] z8 | z8 | z8 | z8 ||[K:B][M:12/8]"^LA VOIX" z4 z4/3 z2/3 B G B | %80
 d3- d2 B d3- d2 B | d6- d3- d2 z2/3 | z8 | z4 z4/3 z2/3 B G B | d3- d2 B d3- d2 B ||[K:Eb] e12 | %86
 z8 ||[K:B] e12 | d12- | d2 z2/3 z4/3 z2/3 z4 | z8 | z8 |] %92
V:3
 (F/4D/4B,/4G,/4) z (f/4d/4B/4G/4) z (F/4D/4B,/4G,/4) z (f/4d/4B/4G/4) z | z8 | z8 | z8 | z8 | z8 | %6
 z8 | z8 ||[M:2/4] z4 ||[M:4/4] z8 | z8 ||[M:2/4] z4 ||[M:4/4] z8 | z8 ||[M:2/4] z4 || %15
[K:Eb][M:4/4] z8 | z8 | z8 | z8 | z8 | z8 | z8 | z8 ||[K:B] z8 | z8 | z8 | z8 | z8 | z8 | z8 | %30
 z8 ||[M:2/4] z4 ||[M:4/4] z8 ||[M:2/4] z4 ||[M:4/4] z8 | z8 ||[K:D] z8 | z8 | z8 | z8 || %40
[K:B] z8 || z8 | z8 | z8 | z8 | z8 | z8 ||[M:2/4] z4 ||[M:4/4] z8 | z8 ||[M:2/4] z4 ||[M:4/4] z8 | %52
 z8 ||[M:2/4] z4 ||[K:Eb][M:4/4] z8 | z8 | z8 | z8 | z8 | z8 | z8 | z8 ||[K:B] z8 | z8 | z8 | z8 | %66
 z8 | z8 | z8 | z8 ||[M:2/4] z4 ||[M:4/4] z8 ||[M:2/4] z4 ||[M:4/4] z8 | z8 ||[K:D] z8 | z8 | z8 | %78
 z8 ||[K:B] z8 | z8 | z8 | z8 | z8 | z8 ||[K:Eb] z8 | z8 ||[K:B] z8 | z8 | z8 | z8 | z8 |] %92
V:4
 z F,/4D,/4B,,/4G,,/4 z[K:treble] F/4D/4B,/4G,/4 z[K:bass] F,/4D,/4B,,/4G,,/4 z[K:treble] F/4D/4B,/4G,/4 | %1
"^The Piano part contains the main time signature" z8 | z8 | z8 | z8 | z8 | z8 | z8 ||[M:2/4] z4 || %9
[M:4/4] z8 | z8 ||[M:2/4] z4 ||[M:4/4] z8 | z8 ||[M:2/4] z4 ||[K:Eb][M:4/4] z8 | z8 | z8 | z8 | %19
 z8 | z8 | z8 | z8 ||[K:B] z8 | z8 | z8 | z8 | z8 | z8 | z8 | z8 ||[M:2/4] z4 ||[M:4/4] z8 || %33
[M:2/4] z4 ||[M:4/4] z8 | z8 ||[K:D] z8 | z8 | z8 | z8 ||[K:B] z8 || z8 | z8 | z8 | z8 | z8 | z8 || %47
[M:2/4] z4 ||[M:4/4] z8 | z8 ||[M:2/4] z4 ||[M:4/4] z8 | z8 ||[M:2/4] z4 ||[K:Eb][M:4/4] z8 | z8 | %56
 z8 | z8 | z8 | z8 | z8 | z8 ||[K:B] z8 | z8 | z8 | z8 | z8 | z8 | z8 | z8 ||[M:2/4] z4 || %71
[M:4/4] z8 ||[M:2/4] z4 ||[M:4/4] z8 | z8 ||[K:D] z8 | z8 | z8 | z8 ||[K:B] z8 | z8 | z8 | z8 | %83
 z8 | z8 ||[K:Eb] z8 | z8 ||[K:B] z8 | z8 | z8 | z8 | z8 |] %92

